symbols/web/print/materialsymbolsrounded/print_wght100_24px.svg

<svg xmlns="http://www.w3.org/2000/svg" height="24" width="24"><path d="M16 8.8v-3H8v3h-.7V5.85q0-.325.213-.538.212-.212.537-.212h7.9q.325 0 .538.212.212.213.212.538V8.8Zm-11.25.7h14.5H7.3ZM17.5 12q.425 0 .712-.288.288-.287.288-.712t-.288-.713Q17.925 10 17.5 10t-.712.287q-.288.288-.288.713t.288.712q.287.288.712.288Zm-8.7 7h6.4q.35 0 .575-.225Q16 18.55 16 18.2v-3.9H8v3.9q0 .35.225.575Q8.45 19 8.8 19Zm0 .7q-.625 0-1.062-.438Q7.3 18.825 7.3 18.2v-2.5H4.8q-.325 0-.537-.212-.213-.213-.213-.538V10.5q0-.725.487-1.213Q5.025 8.8 5.75 8.8h12.5q.725 0 1.213.487.487.488.487 1.213v4.45q0 .325-.212.538-.213.212-.538.212h-2.5v2.5q0 .625-.438 1.062-.437.438-1.062.438ZM19.25 15v-4.5q0-.425-.288-.713-.287-.287-.712-.287H5.75q-.425 0-.713.287-.287.288-.287.713V15H7.3v-1.4h9.4V15Z"/></svg>

<svg xmlns="http://www.w3.org/2000/svg" height="24" width="24"><path d="M16 8.8V5.8H8V8.8H7.3V5.85Q7.3 5.525 7.513 5.312Q7.725 5.1 8.05 5.1H15.95Q16.275 5.1 16.488 5.312Q16.7 5.525 16.7 5.85V8.8ZM4.75 9.5Q4.75 9.5 5.037 9.5Q5.325 9.5 5.75 9.5H18.25Q18.675 9.5 18.962 9.5Q19.25 9.5 19.25 9.5H16.7H7.3ZM17.5 12Q17.925 12 18.212 11.712Q18.5 11.425 18.5 11Q18.5 10.575 18.212 10.287Q17.925 10 17.5 10Q17.075 10 16.788 10.287Q16.5 10.575 16.5 11Q16.5 11.425 16.788 11.712Q17.075 12 17.5 12ZM8.8 19H15.2Q15.55 19 15.775 18.775Q16 18.55 16 18.2V14.3H8V18.2Q8 18.55 8.225 18.775Q8.45 19 8.8 19ZM8.8 19.7Q8.175 19.7 7.738 19.262Q7.3 18.825 7.3 18.2V15.7H4.8Q4.475 15.7 4.263 15.488Q4.05 15.275 4.05 14.95V10.5Q4.05 9.775 4.537 9.287Q5.025 8.8 5.75 8.8H18.25Q18.975 8.8 19.463 9.287Q19.95 9.775 19.95 10.5V14.95Q19.95 15.275 19.738 15.488Q19.525 15.7 19.2 15.7H16.7V18.2Q16.7 18.825 16.262 19.262Q15.825 19.7 15.2 19.7ZM19.25 15V10.5Q19.25 10.075 18.962 9.787Q18.675 9.5 18.25 9.5H5.75Q5.325 9.5 5.037 9.787Q4.75 10.075 4.75 10.5V15H7.3V13.6H16.7V15Z"/></svg>
